static/fonts/iconfont.svg

<?xml version="1.0" standalone="no"?>
<!DOCTYPE svg PUBLIC "-//W3C//DTD SVG 1.1//EN" "http://www.w3.org/Graphics/SVG/1.1/DTD/svg11.dtd" >
<svg xmlns="http://www.w3.org/2000/svg">
<metadata>
Created by FontForge 20120731 at Wed Jan  6 18:45:42 2016
 By Ads
</metadata>
<defs>
<font id="iconfont" horiz-adv-x="1024" >
  <font-face 
    font-family="iconfont"
    font-weight="500"
    font-stretch="normal"
    units-per-em="1024"
    panose-1="2 0 6 3 0 0 0 0 0 0"
    ascent="896"
    descent="-128"
    x-height="792"
    bbox="34 -212 987 792"
    underline-thickness="50"
    underline-position="-100"
    unicode-range="U+0078-E612"
  />
<missing-glyph horiz-adv-x="374" 
d="M34 0v682h272v-682h-272zM68 34h204v614h-204v-614z" />
    <glyph glyph-name=".notdef" horiz-adv-x="374" 
d="M34 0v682h272v-682h-272zM68 34h204v614h-204v-614z" />
    <glyph glyph-name=".null" horiz-adv-x="0" 
 />
    <glyph glyph-name="nonmarkingreturn" horiz-adv-x="341" 
 />
    <glyph glyph-name="x" unicode="x" horiz-adv-x="1001" 
d="M281 543q-27 -1 -53 -1h-83q-18 0 -36.5 -6t-32.5 -18.5t-23 -32t-9 -45.5v-76h912v41q0 16 -0.5 30t-0.5 18q0 13 -5 29t-17 29.5t-31.5 22.5t-49.5 9h-133v-97h-438v97zM955 310v-52q0 -23 0.5 -52t0.5 -58t-10.5 -47.5t-26 -30t-33 -16t-31.5 -4.5q-14 -1 -29.5 -0.5
t-29.5 0.5h-32l-45 128h-439l-44 -128h-29h-34q-20 0 -45 1q-25 0 -41 9.5t-25.5 23t-13.5 29.5t-4 30v167h911zM163 247q-12 0 -21 -8.5t-9 -21.5t9 -21.5t21 -8.5q13 0 22 8.5t9 21.5t-9 21.5t-22 8.5zM316 123q-8 -26 -14 -48q-5 -19 -10.5 -37t-7.5 -25t-3 -15t1 -14.5
t9.5 -10.5t21.5 -4h37h67h81h80h64h36q23 0 34 12t2 38q-5 13 -9.5 30.5t-9.5 34.5q-5 19 -11 39h-368zM336 498v228q0 11 2.5 23t10 21.5t20.5 15.5t34 6h188q31 0 51.5 -14.5t20.5 -52.5v-227h-327z" />
    <glyph glyph-name="uniE600" unicode="&#xe600;" 
d="M672 676q-22 -10 -26.5 -30t11.5 -36q8 -7 19.5 -9.5t43.5 -2.5q46 0 77.5 -12.5t54.5 -39.5q10 -11 16 -18.5t11.5 -17t8 -17.5t4 -20.5t2 -25.5t0.5 -34q0 -52 2 -62t14 -17q14 -8 25.5 -7t20.5 10t15 27t9 44q8 67 -27 136.5t-96 105.5q-40 23 -97 31t-88 -5zM369 561
q-102 -36 -207 -148q-127 -135 -119.5 -254.5t147.5 -187.5q146 -71 318.5 -50.5t278.5 122.5q27 25 44 52t24 53t4 51.5t-14.5 47t-33 39t-51.5 28.5q-16 5 -22 9.5t-3 9.5q8 21 10.5 42t-2.5 35q-14 44 -64 54t-128 -17l-41 -14l4 41q6 69 -36 90q-17 9 -48.5 8.5
t-60.5 -11.5zM540 323q69 -19 108.5 -58t39.5 -89q0 -54 -46 -100.5t-125 -73.5q-43 -14 -109 -16t-105 8q-74 21 -113.5 60.5t-39.5 91.5q0 28 13 54t40 51q17 16 32.5 27t33.5 19.5t43 17.5q117 39 228 8zM346 263q-95 -44 -95 -128q0 -74 71 -111q28 -15 72 -14t76 17
q20 10 36.5 25t28 32t17.5 36.5t6 38.5q0 31 -24 63.5t-57 45.5q-26 11 -64.5 9.5t-66.5 -14.5zM391 147q3 -3 5 -10t2 -14q0 -23 -28 -36.5t-44 1.5q-9 9 -7 26.5t12 28t30.5 12t29.5 -7.5zM682 549q-13 -14 -13 -28t13.5 -24t35.5 -10q19 0 31.5 -6.5t18.5 -21t6 -36.5
q0 -14 1 -22t4 -12.5t8 -8.5q17 -11 30.5 -7.5t22 20.5t8.5 44q0 51 -32.5 85t-84.5 38q-11 1 -18.5 1t-13 -1.5t-9 -3.5t-8.5 -7z" />
    <glyph glyph-name="uniE601" unicode="&#xe601;" 
d="M608 332q0 13 -9.5 22.5t-22.5 9.5h-128q-13 0 -22.5 -9.5t-9.5 -22.5t9.5 -22.5t22.5 -9.5h128q13 0 22.5 9.5t9.5 22.5zM896 428v-480q0 -13 -9.5 -22.5t-22.5 -9.5h-704q-13 0 -22.5 9.5t-9.5 22.5v480q0 13 9.5 22.5t22.5 9.5h704q13 0 22.5 -9.5t9.5 -22.5zM928 652
v-128q0 -13 -9.5 -22.5t-22.5 -9.5h-768q-13 0 -22.5 9.5t-9.5 22.5v128q0 13 9.5 22.5t22.5 9.5h768q13 0 22.5 -9.5t9.5 -22.5z" />
    <glyph glyph-name="uniE602" unicode="&#xe602;" 
d="M502 747q95 0 161.5 -65.5t66.5 -158.5q0 -61 -30.5 -112.5t-83 -81.5t-114 -30t-114 30t-83 81.5t-30.5 112.5q0 46 18 87.5t48.5 71.5t72.5 47.5t88 17.5zM502 747q95 0 161.5 -65.5t66.5 -158.5q0 -61 -30.5 -112.5t-83 -81.5t-114 -30t-114 30t-83 81.5t-30.5 112.5
q0 46 18 87.5t48.5 71.5t72.5 47.5t88 17.5zM417 224h190q122 0 208 -84.5t86 -204.5v-19q0 -15 -9.5 -26.5t-31 -18.5t-44.5 -11t-61.5 -6t-68.5 -2.5t-79 -0.5h-190h-79q-27 0 -68.5 2t-62 6t-43.5 11t-32 18.5t-9 27.5v19q0 122 88 207q87 82 206 82z" />
    <glyph glyph-name="uniE603" unicode="&#xe603;" 
d="M240 24zM130 23.5q0 45.5 32 77.5t77.5 32t77.5 -32t32 -77q0 -23 -8.5 -43t-23 -35t-35 -23.5t-42.5 -8.5q-46 0 -78 32t-32 77.5zM624 -86q0 100 -39 191.5t-105.5 158t-158 105.5t-191.5 39v-137q97 0 179 -48t130 -130t48 -179h137zM898 -86q0 209 -103 385.5
t-279.5 279.5t-385.5 103v-137q128 0 245 -50t201.5 -134.5t134.5 -201.5t50 -245h137z" />
    <glyph glyph-name="uniE604" unicode="&#xe604;" 
d="M124 260q-24 24 -41 65.5t-17 75.5l1 226q0 22 15.5 38t37.5 16h233q34 0 74.5 -17.5t64.5 -41.5l300 -305q24 -25 24 -59t-24 -58l-246 -246q-24 -24 -58 -24t-58 24zM302 444.5q22 22.5 22 53.5t-22 53q-15 15 -34 20t-38.5 0t-34.5 -20q-22 -22 -22 -53t22 -53.5
t53.5 -22.5t53.5 22.5zM469 699l391 -393q20 -19 20 -46.5t-19 -47.5l-281 -281h29q27 -1 60 13t53 33l209 208q30 30 30 72t-30 72l-304 305q-20 19 -52.5 36t-59.5 21z" />
    <glyph glyph-name="uniE605" unicode="&#xe605;" 
d="M841 245v-274q0 -15 -11 -26t-25 -11h-220v220h-146v-220h-220q-14 0 -25 11t-11 26v274q0 1 3 2t3 2l328 270l329 -270v-4h-5zM974 285l-36 -43q-4 -5 -12 -6h-1q-8 0 -12 4l-396 330l-395 -330q-7 -5 -14 -4t-12 6l-35 43q-5 5 -4.5 13t6.5 12l411 343q18 14 43 14
t44 -14l139 -117v111q0 8 5 13.5t13 5.5h110q8 0 13 -5.5t5 -13.5v-233l125 -104q6 -4 6.5 -12t-3.5 -13z" />
    <glyph glyph-name="uniE606" unicode="&#xe606;" 
d="M695 336.5q0 105.5 -75 181t-181 75.5t-181 -75.5t-75 -181t75 -180.5t181 -75t181 75t75 180.5zM987 -139q0 -30 -21.5 -51.5t-51.5 -21.5q-31 0 -51 22l-196 195q-102 -71 -228 -71q-82 0 -156.5 32t-128.5 86t-85.5 128.5t-31.5 156t31.5 156t85.5 128.5t128.5 86
t156.5 32t156.5 -32t128.5 -86t85.5 -128.5t31.5 -155.5q0 -126 -71 -228l196 -196q21 -22 21 -52z" />
    <glyph glyph-name="uniE607" unicode="&#xe607;" 
d="M230 202q-24 -5 -48 -12.5t-45 -20.5l-2 -1l-1 -1q-38 -24 -53 -53q-15 -32 -15 -56q0 -26 12 -49t36.5 -41.5t62 -29.5t86.5 -11q59 0 104.5 15t75.5 40q15 12 26.5 25.5t19.5 29t12 31.5t4 32q0 23 -6.5 41.5t-17.5 32.5l-4 6q-2 3 -4.5 5.5t-5 5.5t-5.5 5.5t-6 5.5
q-7 6 -14 12.5t-14 12.5l-33 26q-3 2 -5 5l-6 4l-5 6q-8 8 -8 23.5t8 25.5t17 19q15 11 29 24l9 8q4 5 8 9.5t8 9.5q11 15 17 34t6 44.5t-7 45.5t-17 35t-21 25.5t-20 17.5h57l59 33h-189q-19 0 -39.5 -2.5t-41.5 -7.5q-44 -9 -83 -41q-30 -25 -44 -57q-8 -17 -11.5 -33
t-3.5 -32q0 -26 10 -52t29.5 -46t47.5 -32.5t65 -12.5q4 0 7.5 0.5t7.5 0.5t7.5 0.5t7.5 0.5q-4 -8 -7 -15.5t-3 -19.5q0 -21 9 -35q4 -7 9 -14t10 -13q-15 -1 -37 -3q-10 -1 -21.5 -2.5t-23.5 -3.5zM307 332q-29 0 -50.5 17t-36 41.5t-21 52.5t-6.5 51q0 18 4 35.5t16 31.5
q11 14 28.5 22.5t35.5 8.5q28 0 50 -17t36.5 -42.5t22 -54.5t7.5 -54q0 -13 -4 -32t-19 -35q-6 -5 -13 -9.5t-15.5 -8t-17 -5.5t-17.5 -2zM309 184.5q10 0.5 13 0.5h11h5q2 0 5 -1q13 -9 24 -17t21 -15q19 -15 31 -29q6 -7 10.5 -13.5t7.5 -14.5q6 -14 6 -31
q0 -43 -34.5 -70.5t-100.5 -27.5q-74 0 -117.5 31t-43.5 80q0 24 9 41q4 5 7.5 10t7.5 9l8 8q13 11 26 17q7 3 12 5t9 4q14 4 30 7.5t29.5 4.5t23.5 1.5zM785 673h-55v-171h-175v-54h175v-174h55v174h173v54h-173v171z" />
    <glyph glyph-name="uniE608" unicode="&#xe608;" 
d="M675 431h11q5 0 10 -0.5t11 -1.5q-22 99 -115.5 164t-214.5 65q-66 0 -126 -21.5t-104 -58.5t-70 -88.5t-26 -108.5q0 -129 131 -220l-33 -98l114 57q6 -1 15 -3t14.5 -3t13.5 -2.5t14 -2.5t14 -2.5t14.5 -2t14 -1t14.5 -0.5q14 0 31 2q-10 34 -10 68q0 53 21.5 100.5
t58.5 82t88.5 55t108.5 20.5zM500 520q18 0 29.5 -11.5t11.5 -29.5t-11.5 -29.5t-29.5 -11.5q-9 0 -18 3t-16 8.5t-11 13t-4 16.5t4 16.5t11 13t16 8.5t18 3zM271 438q-19 0 -34 11.5t-15 29.5q0 12 7.5 21.5t18.5 14.5t23 5q19 0 30 -11.5t11 -29.5t-11 -29.5t-30 -11.5z
M973 177q0 97 -83 167t-194 70q-116 0 -197 -69.5t-81 -167.5t81 -167.5t197 -69.5q32 0 98 17l89 -49l-24 81q114 86 114 188zM606 218q-12 0 -22.5 10t-10.5 22.5t10.5 22.5t22.5 10q5 0 10 -1t9 -2.5t7.5 -4t6 -5.5t4.5 -6t3 -6.5t1 -7.5q0 -8 -5 -15.5t-14.5 -12
t-21.5 -4.5zM785 218q-8 0 -15.5 4.5t-12 12t-4.5 15.5t4.5 16t12 12.5t15.5 4.5q18 0 29.5 -10t11.5 -22.5t-11.5 -22.5t-29.5 -10z" />
    <glyph glyph-name="uniE609" unicode="&#xe609;" 
d="M854 470v86l-342 -214l-342 214v-86l342 -212zM854 642q34 0 59 -26t25 -60v-512q0 -34 -25 -60t-59 -26h-684q-34 0 -59 26t-25 60v512q0 34 25 60t59 26h684z" />
    <glyph glyph-name="uniE60A" unicode="&#xe60a;" 
d="M667 648q47 0 78.5 -14t61.5 -42q37 3 91 31q3 2 10.5 6t11.5 6q-20 -54 -58 -83q-1 -1 -5 -4.5t-7.5 -6t-6.5 -3.5q17 0 34 4t38 12.5t28 10.5v-1q-26 -42 -60 -68q-4 -4 -9 -7.5t-10 -7.5t-8 -7q0 -73 -9 -114q-9 -42 -23 -81t-32.5 -73.5t-41 -64.5t-49.5 -56
t-58 -47.5t-66.5 -39t-75.5 -29.5q-53 -16 -121.5 -20t-128.5 10q-61 15 -104 34q-7 3 -13.5 6t-12.5 6t-12.5 6.5t-11.5 6.5l-16 10q1 0 27.5 -2.5t29.5 0.5q6 1 16 1.5t18.5 1.5t15.5 2q65 15 106 39q3 1 9.5 4.5t11 6.5t10 6t10 6.5t7.5 7.5q-14 0 -27 2.5t-26 6.5
q-79 28 -112 114q66 -8 79 3q-22 1 -58 23q-83 53 -83 152q3 -2 6 -3.5t6.5 -3t5.5 -2.5q12 -5 38 -10q19 -4 24 -2h-1q-4 5 -16 13.5t-17 14.5q-61 76 -39 160q5 22 19 46h1q2 -4 8 -10.5t8 -8.5q19 -24 52 -50q51 -39 100 -63.5t116 -41.5q20 -4 40 -7t40 -3q-13 36 0 83
q24 86 101 119l6 2q3 1 6 2.5t6.5 2.5t6.5 1.5t6.5 1.5t7.5 2q2 0 4 0.5t4.5 0.5t4.5 0.5t4 0.5t4 1z" />
    <glyph glyph-name="uniE60B" unicode="&#xe60b;" 
d="M292 -51h-154v491h154v-491zM211 501h-1q-41 0 -66 24.5t-25 61.5q0 36 25.5 60.5t67.5 24.5t67 -24t26 -61q0 -37 -26 -61.5t-68 -24.5zM905 -51h-173v254q0 52 -22 82t-65 30q-32 0 -52.5 -17t-31.5 -43q-3 -9 -3 -40v-266h-173q3 450 0 491h173v-77q4 13 16 27
t31 26.5t46.5 20.5t59.5 8q41 0 76 -14t62 -40.5t41.5 -69.5t14.5 -99v-273z" />
    <glyph glyph-name="uniE60C" unicode="&#xe60c;" 
d="M763 -163q0 -18 -1 -18v-1h-609q-18 0 -19 1v396h65v-333h499v333h65v-378zM633 -53h-380v81h380v-81zM642 132l-7 -80l-379 34l8 81zM667 239l-21 -79l-367 99l21 78zM715 331l-41 -70l-328 194l42 70zM795 388l-66 -46l-215 315l67 46zM890 407l-80 -14l-65 375l80 14z
" />
    <glyph glyph-name="uniE60D" unicode="&#xe60d;" 
d="M63 288q0 -145 84 -261t217 -163q5 -1 8.5 -1t5.5 1.5t3.5 2.5t2 4.5t0.5 4.5v6v5v78q-39 -5 -67 1t-43 19.5t-23 25.5t-12.5 26.5t-5.5 16.5q-8 13 -23.5 24t-23.5 17.5t-2 12.5q44 23 99 -58q30 -44 104 -26q3 12 8 23t12 20.5t15 17.5q-101 18 -150.5 75.5
t-49.5 138.5q0 76 49 132q-20 58 5 120q26 3 57.5 -9t44 -20.5t21.5 -15.5q51 14 113 14q32 0 60.5 -3.5t53.5 -10.5q65 49 122 44q23 -63 6 -119q16 -18 27 -39.5t16.5 -44.5t5.5 -48q0 -82 -50 -139t-151 -75q38 -38 38 -91v-113v-3q1 -4 1 -6t1.5 -4.5t4.5 -3.5t8 -1
q135 45 220.5 162t85.5 263q0 92 -35.5 175t-95.5 143t-143.5 95.5t-174.5 35.5t-174.5 -35.5t-143.5 -95.5t-95.5 -143t-35.5 -175z" />
    <glyph glyph-name="uniE60E" unicode="&#xe60e;" 
d="M674 353l16 125h-124v80q0 11 1.5 19.5t5.5 16.5t11 13t18 8t26 3h66v112q-12 1 -39 3t-57 2q-73 0 -116.5 -43.5t-43.5 -121.5v-92h-108v-125h108v-320h128v320h108z" />
    <glyph glyph-name="uniE60F" unicode="&#xe60f;" 
d="M677 384q0 -15 -11 -26l-256 -256q-11 -11 -26 -11t-26 11t-11 26v512q0 15 11 26t26 11t26 -11l256 -256q11 -11 11 -26z" />
    <glyph glyph-name="uniE610" unicode="&#xe610;" 
d="M675 640v-512q0 -15 -11 -26t-25.5 -11t-25.5 11l-256 256q-11 11 -11 26t11 26l256 256q11 11 25.5 11t25.5 -11t11 -26z" />
    <glyph glyph-name="uniE611" unicode="&#xe611;" 
d="M344 93q-20 -18 -37 -27t-32 -9t-28 6.5t-27 20.5l-46 44q-27 27 -27 65.5t27 65.5l181 182q17 18 41 24t47.5 0t41.5 -24l32 -38q21 -21 26 -49.5t-7 -53.5l79 -60q26 26 35.5 62t0 71.5t-35.5 62.5l-98 98q-40 40 -97 40t-98 -40l-238 -242q-41 -41 -41 -98.5t41 -97.5
l95 -101q40 -41 97 -41t98 41l93 99l-67 64zM950 504l-108 95q-40 40 -97 40t-98 -40l-34 -37q-8 -9 -19 -19l65 -62l29 32q27 27 65 27t65 -27l32 -33q27 -27 27 -65.5t-27 -65.5l-158 -165q-9 -9 -20 -15t-22 -9t-23 -3t-23.5 3t-22 9t-19.5 15l-27 44q-16 13 -25.5 22
t-12 17.5t-3 12.5t2.5 14t4 15l-72 71q-20 -21 -31.5 -45t-12.5 -49t10 -52t34 -50l98 -95q40 -41 97 -41t98 41l228 219q16 18 24.5 38.5t9.5 39t-1.5 36.5t-8 32.5t-11 25.5t-9.5 17z" />
    <glyph glyph-name="uniE612" unicode="&#xe612;" 
d="M768 449h-42v86q0 58 -28.5 107.5t-77.5 77.5t-108 28q-44 0 -83.5 -16.5t-68 -45t-45 -68t-16.5 -83.5v-86h-43q-35 0 -60 -25t-25 -60v-427q0 -35 25 -60.5t60 -25.5h512q18 0 33.5 7t27 18.5t18.5 27.5t7 33v427q0 35 -25 60t-61 25zM512 65q-14 0 -27 4.5t-23.5 12
t-18 18t-12 23.5t-4.5 27q0 36 25 61t60 25t60.5 -25t25.5 -60.5t-25.5 -60.5t-60.5 -25zM645 449h-265v86q0 54 39 93t93.5 39t93.5 -39t39 -93v-86z" />
  </font>
</defs></svg>

<svg xmlns="http://www.w3.org/2000/svg"><defs><font id="iconfont" horiz-adv-x="1024"><font-face ascent="896" bbox="34 -212 987 747" descent="-128" font-family="iconfont" font-weight="500" panose-1="2 0 6 3 0 0 0 0 0 0" underline-position="-200" underline-thickness="50" unicode-range="U+E601-E611" units-per-em="1024"/><glyph d="M34 0v682h272V0H34zm34 34h204v614H68V34z" glyph-name=".notdef" horiz-adv-x="374"/><glyph glyph-name=".null" horiz-adv-x="0"/><glyph glyph-name="nonmarkingreturn" horiz-adv-x="341"/><glyph d="M608 332q0 13-9.5 22.5T576 364H448q-13 0-22.5-9.5T416 332t9.5-22.5T448 300h128q13 0 22.5 9.5T608 332zm288 96V-52q0-13-9.5-22.5T864-84H160q-13 0-22.5 9.5T128-52v480q0 13 9.5 22.5T160 460h704q13 0 22.5-9.5T896 428zm32 224V524q0-13-9.5-22.5T896 492H128q-13 0-22.5 9.5T96 524v128q0 13 9.5 22.5T128 684h768q13 0 22.5-9.5T928 652z" glyph-name="uniE601" unicode=""/><glyph d="M502 747q95 0 161.5-65.5T730 523q0-61-30.5-112.5t-83-81.5-114-30-114 30-83 81.5T275 523q0 46 18 87.5t48.5 71.5 72.5 47.5 88 17.5zm0 0q95 0 161.5-65.5T730 523q0-61-30.5-112.5t-83-81.5-114-30-114 30-83 81.5T275 523q0 46 18 87.5t48.5 71.5 72.5 47.5 88 17.5zm-85-523h190q122 0 208-84.5T901-65v-19q0-15-9.5-26.5t-31-18.5-44.5-11-61.5-6-68.5-2.5-79-.5H338q-27 0-68.5 2t-62 6-43.5 11-32 18.5-9 27.5v19q0 122 88 207 87 82 206 82z" glyph-name="uniE602" unicode=""/><glyph d="M240 24zm-110-.5q0 45.5 32 77.5t77.5 32 77.5-32 32-77q0-23-8.5-43t-23-35-35-23.5T240-86q-46 0-78 32t-32 77.5zM624-86q0 100-39 191.5t-105.5 158-158 105.5T130 408V271q97 0 179-48T439 93t48-179h137zm274 0q0 209-103 385.5T515.5 579 130 682V545q128 0 245-50t201.5-134.5T711 159t50-245h137z" glyph-name="uniE603" unicode=""/><glyph d="M124 260q-24 24-41 65.5T66 401l1 226q0 22 15.5 38t37.5 16h233q34 0 74.5-17.5T492 622l300-305q24-25 24-59t-24-58L546-46q-24-24-58-24t-58 24zm178 184.5q22 22.5 22 53.5t-22 53q-15 15-34 20t-38.5 0-34.5-20q-22-22-22-53t22-53.5 53.5-22.5 53.5 22.5zM469 699l391-393q20-19 20-46.5T861 212L580-69h29q27-1 60 13t53 33l209 208q30 30 30 72t-30 72L627 634q-20 19-52.5 36T515 691z" glyph-name="uniE604" unicode=""/><glyph d="M841 245V-29q0-15-11-26t-25-11H585v220H439V-66H219q-14 0-25 11t-11 26v274q0 1 3 2t3 2l328 270 329-270v-4h-5zm133 40l-36-43q-4-5-12-6h-1q-8 0-12 4L517 570 122 240q-7-5-14-4t-12 6l-35 43q-5 5-4.5 13t6.5 12l411 343q18 14 43 14t44-14l139-117v111q0 8 5 13.5t13 5.5h110q8 0 13-5.5t5-13.5V414l125-104q6-4 6.5-12t-3.5-13z" glyph-name="uniE605" unicode=""/><glyph d="M695 336.5q0 105.5-75 181T439 593t-181-75.5-75-181T258 156t181-75 181 75 75 180.5zM987-139q0-30-21.5-51.5T914-212q-31 0-51 22L667 5Q565-66 439-66q-82 0-156.5 32T154 52 68.5 180.5 37 336.5t31.5 156T154 621t128.5 86T439 739t156.5-32T724 621t85.5-128.5T841 337q0-126-71-228L966-87q21-22 21-52z" glyph-name="uniE606" unicode=""/><glyph d="M63 288q0-145 84-261t217-163q5-1 8.5-1t5.5 1.5 3.5 2.5 2 4.5.5 4.5v89q-39-5-67 1t-43 19.5T251 11t-12.5 26.5T233 54q-8 13-23.5 24T186 95.5t-2 12.5q44 23 99-58 30-44 104-26 3 12 8 23t12 20.5T422 85q-101 18-150.5 75.5T222 299q0 76 49 132-20 58 5 120 26 3 57.5-9t44-20.5T399 506q51 14 113 14 32 0 60.5-3.5T626 506q65 49 122 44 23-63 6-119 16-18 27-39.5t16.5-44.5 5.5-48q0-82-50-139T602 85q38-38 38-91v-116q1-4 1-6t1.5-4.5 4.5-3.5 8-1Q790-92 875.5 25T961 288q0 92-35.5 175T830 606t-143.5 95.5T512 737t-174.5-35.5T194 606 98.5 463 63 288z" glyph-name="uniE60D" unicode=""/><glyph d="M344 93q-20-18-37-27t-32-9-28 6.5T220 84l-46 44q-27 27-27 65.5t27 65.5l181 182q17 18 41 24t47.5 0 41.5-24l32-38q21-21 26-49.5t-7-53.5l79-60q26 26 35.5 62t0 71.5T615 436l-98 98q-40 40-97 40t-98-40L84 292q-41-41-41-98.5T84 96L179-5q40-41 97-41t98 41l93 99-67 64zm606 411l-108 95q-40 40-97 40t-98-40l-34-37q-8-9-19-19l65-62 29 32q27 27 65 27t65-27l32-33q27-27 27-65.5T850 349L692 184q-9-9-20-15t-22-9-23-3-23.5 3-22 9-19.5 15l-27 44q-16 13-25.5 22t-12 17.5-3 12.5 2.5 14 4 15l-72 71q-20-21-31.5-45T385 286t10-52 34-50l98-95q40-41 97-41t98 41l228 219q16 18 24.5 38.5t9.5 39-1.5 36.5-8 32.5-11 25.5-9.5 17z" glyph-name="uniE611" unicode=""/></font></defs></svg>
